assets/results/umeshu.svg

<svg width="226" height="302" viewBox="0 0 226 302" fill="none" xmlns="http://www.w3.org/2000/svg">
<g clip-path="url(#clip0_67_209)">
<path d="M86.26 207.85C86.26 209.6 84.19 211.23 80.57 212.63C73.25 215.49 59.57 217.42 43.88 217.42C28.19 217.42 14.52 215.49 7.18 212.63C3.57 211.23 1.5 209.63 1.5 207.85C1.5 202.57 20.5 198.28 43.88 198.28C67.26 198.28 86.26 202.57 86.26 207.85Z" stroke="#EEEEEE" stroke-width="3" stroke-miterlimit="10"/>
<path d="M86.26 234C86.26 235.74 84.19 237.38 80.57 238.78C73.24 241.64 59.57 243.56 43.88 243.56C28.19 243.56 14.52 241.64 7.18 238.78C3.57 237.38 1.5 235.78 1.5 234C1.5 228.72 20.5 224.43 43.88 224.43C67.26 224.43 86.26 228.71 86.26 234Z" stroke="#EEEEEE" stroke-width="3" stroke-miterlimit="10"/>
<path d="M86.26 271.36V290.5C86.26 292.24 84.19 293.87 80.57 295.28C73.24 298.14 59.57 300.07 43.88 300.07C28.19 300.07 14.52 298.14 7.18 295.28C3.57 293.87 1.5 292.28 1.5 290.5V271.36C1.5 273.11 3.57 274.74 7.18 276.15C14.52 279 28.18 280.93 43.88 280.93C59.58 280.93 73.24 279 80.57 276.15C84.19 274.74 86.26 273.11 86.26 271.36Z" stroke="#EEEEEE" stroke-width="3" stroke-miterlimit="10"/>
<path d="M1.5 233.99V207.86" stroke="#EEEEEE" stroke-width="3" stroke-miterlimit="10"/>
<path d="M86.26 234V271.37C86.26 273.12 84.19 274.75 80.57 276.16C73.24 279.01 59.57 280.94 43.88 280.94C28.19 280.94 14.52 279 7.18 276.15C3.57 274.74 1.5 273.15 1.5 271.36V234C1.5 235.74 3.57 237.38 7.18 238.78C14.52 241.64 28.18 243.56 43.88 243.56C59.58 243.56 73.24 241.64 80.57 238.78C84.19 237.37 86.26 235.73 86.26 234Z" stroke="#EEEEEE" stroke-width="3" stroke-miterlimit="10"/>
<path d="M86.26 233.99V207.86" stroke="#EEEEEE" stroke-width="3" stroke-miterlimit="10"/>
<path d="M224.43 288.79C224.43 290.79 221.86 292.64 217.37 294.25C208.28 297.5 191.3 299.7 171.86 299.7C152.42 299.7 135.43 297.5 126.33 294.25C121.85 292.64 119.33 290.79 119.33 288.79C119.33 282.79 142.86 277.88 171.9 277.88C200.94 277.88 224.43 282.77 224.43 288.79Z" stroke="#EEEEEE" stroke-width="3" stroke-miterlimit="10"/>
<path d="M119.29 288.79V88.55" stroke="#EEEEEE" stroke-width="3" stroke-miterlimit="10"/>
<path d="M224.43 288.79V88.55" stroke="#EEEEEE" stroke-width="3" stroke-miterlimit="10"/>
<path d="M183.12 3.84C183.12 4.26 182.57 4.66 181.6 5C178.431 5.8771 175.147 6.27153 171.86 6.17C168.57 6.27132 165.283 5.8769 162.11 5C161.11 4.66 160.6 4.26 160.6 3.84C160.6 2.55 165.6 1.5 171.86 1.5C178.12 1.5 183.12 2.55 183.12 3.84Z" stroke="#EEEEEE" stroke-width="3" stroke-miterlimit="10"/>
<path d="M183.12 18.8199C183.12 19.2399 182.57 19.6399 181.6 19.9899C178.429 20.8576 175.146 21.2486 171.86 21.1499C168.571 21.2518 165.285 20.8642 162.11 19.9999C161.11 19.6499 160.6 19.2499 160.6 18.8299" stroke="#EEEEEE" stroke-width="3" stroke-miterlimit="10"/>
<path d="M160.6 18.82V3.83997" stroke="#EEEEEE" stroke-width="3" stroke-miterlimit="10"/>
<path d="M183.12 18.82V3.83997" stroke="#EEEEEE" stroke-width="3" stroke-miterlimit="10"/>
<path d="M119.29 88.55C119.29 66.03 155.18 58.37 161.08 34.85C161.995 30.3442 162.354 25.7433 162.15 21.15" stroke="#EEEEEE" stroke-width="3" stroke-miterlimit="10"/>
<path d="M224.43 88.55C224.43 66.03 188.53 58.37 182.63 34.85C181.72 30.3435 181.361 25.7432 181.56 21.15" stroke="#EEEEEE" stroke-width="3" stroke-miterlimit="10"/>
<path d="M224.43 114.16V244.31C224.43 247.01 221.86 249.54 217.37 251.73C208.28 256.15 191.3 259.14 171.86 259.14C152.42 259.14 135.43 256.14 126.33 251.73C121.85 249.54 119.33 247.01 119.33 244.31V114.16C119.33 116.88 121.89 119.4 126.33 121.58C135.43 126.02 152.41 128.99 171.86 128.99C191.31 128.99 208.28 125.99 217.37 121.58C221.86 119.4 224.43 116.88 224.43 114.16Z" fill="#EEEEEE" stroke="#EEEEEE" stroke-width="3" stroke-miterlimit="10"/>
<path d="M170.54 195.75C170.41 197.56 170.3 199.1 170.17 200.37H172.29V203.11H169.79C169.677 204.17 169.336 205.194 168.79 206.11C168.521 206.501 168.164 206.823 167.746 207.049C167.329 207.275 166.864 207.399 166.39 207.41C165.122 207.519 163.848 207.519 162.58 207.41C162.521 206.594 162.29 205.8 161.9 205.08C162.96 205.175 164.025 205.212 165.09 205.19C165.309 205.232 165.536 205.204 165.738 205.111C165.941 205.018 166.109 204.864 166.22 204.67C166.518 204.174 166.724 203.629 166.83 203.06H156.57L156.36 204.5L153.36 204.3C153.77 202 154.18 198.92 154.59 195.7H152.59V194.7L151.09 196.76C150.64 195.66 149.65 193.76 148.76 192.13V207.5H145.81V193C144.979 195.899 143.744 198.666 142.14 201.22C141.733 200.259 141.231 199.341 140.64 198.48C142.64 195.67 144.64 190.6 145.54 186.25H141.36V183.3H145.81V176.07H148.76V183.3H152.35V185.15C154.554 182.479 156.141 179.355 157 176L160.12 176.72C159.776 177.928 159.365 179.117 158.89 180.28H171.89V183H157.59C157.08 184 156.53 184.85 155.98 185.68H170.98V187.05C170.92 189.2 170.81 191.05 170.74 192.8H172.66V195.75H170.54ZM155 192.8C155.27 190.51 155.51 188.21 155.68 186.15C155.3 186.67 154.93 187.15 154.55 187.56C153.875 187.006 153.153 186.514 152.39 186.09V186.26H148.8V188.42C149.65 189.55 151.8 192.84 152.63 194.14V192.8H155ZM157.53 195.75C157.33 197.36 157.15 198.93 156.98 200.37H160.68C160.82 199 160.99 197.43 161.13 195.75H157.53ZM158.28 188.42C158.15 189.85 158.01 191.33 157.84 192.8H161.4C161.5 191.29 161.61 189.8 161.71 188.42H158.28ZM167.28 200.42C167.42 199.19 167.56 197.68 167.7 195.8H163.86C163.72 197.48 163.55 199.05 163.41 200.42H167.28ZM167.87 192.85C167.93 191.51 168 190.08 168.07 188.47H164.41C164.3 189.87 164.2 191.38 164.1 192.85H167.87Z" fill="#1F1F1F"/>
<path d="M180.68 191.4C179.41 190.54 176.84 189.03 174.99 188.04L176.77 185.68C178.55 186.57 181.19 187.9 182.53 188.76L180.68 191.4ZM175.61 205.2C177.602 201.634 179.398 197.962 180.99 194.2L183.52 196.02C182.05 199.65 180.13 203.83 178.45 207.02L175.61 205.2ZM178 176.67C179.72 177.59 182.29 179.03 183.59 179.92L181.67 182.49C180.47 181.56 177.97 180.02 176.19 178.96L178 176.67ZM199.11 180.84V184.84H205.27V207.41H202.22V206H187.8V207.54H184.89V184.82H190.55V180.82H183.83V177.91H206.3V180.82L199.11 180.84ZM199.11 194.38C196.75 194.38 196.16 193.69 196.16 191.19V187.59H193.56V188.66C193.595 190.148 193.195 191.614 192.41 192.878C191.625 194.143 190.489 195.151 189.14 195.78C188.746 195.319 188.322 194.885 187.87 194.48V197.19H202.26V194.38H199H199.11ZM187.87 187.59V193.69C190.51 192.15 191.1 190.27 191.1 188.62V187.62L187.87 187.59ZM202.26 203.18V199.89H187.8V203.18H202.26ZM196.26 180.84H193.41V184.84H196.26V180.84ZM202.26 187.59H198.6V191.16C198.6 191.77 198.66 191.84 199.35 191.84H201.61C201.806 191.854 202.003 191.83 202.19 191.77L202.26 187.59Z" fill="#1F1F1F"/>
<path d="M26.46 249.95L34.33 257.14L32.03 267.55L21.87 270.77L14 263.57L16.3 253.16L26.46 249.95Z" stroke="#EEEEEE" stroke-width="3" stroke-linecap="square" stroke-linejoin="round"/>
<path d="M26.46 249.95L24.16 260.36L14 263.57L16.3 253.16L26.46 249.95Z" stroke="#EEEEEE" stroke-width="3" stroke-linecap="square" stroke-linejoin="round"/>
<path d="M24.17 260.35L31.8 267.34" stroke="#EEEEEE" stroke-width="3" stroke-linecap="square" stroke-linejoin="round"/>
<path d="M69.97 253.6L70.22 264.25L61.12 269.8L51.76 264.69L51.51 254.03L60.62 248.48L69.97 253.6Z" stroke="#EEEEEE" stroke-width="3" stroke-linecap="square" stroke-linejoin="round"/>
<path d="M69.97 253.6L60.87 259.14L51.51 254.03L60.62 248.48L69.97 253.6Z" stroke="#EEEEEE" stroke-width="3" stroke-linecap="square" stroke-linejoin="round"/>
<path d="M60.87 259.14L61.11 269.48" stroke="#EEEEEE" stroke-width="3" stroke-linecap="square" stroke-linejoin="round"/>
</g>
<defs>
<clipPath id="clip0_67_209">
<rect width="225.93" height="301.57" fill="white"/>
</clipPath>
</defs>
</svg>

<svg xmlns="http://www.w3.org/2000/svg" viewBox="0 0 225.93 301.57"><defs><style>.cls-1,.cls-4{fill:none;}.cls-1,.cls-2,.cls-4{stroke:#1f1f1f;stroke-width:3px;}.cls-1,.cls-2{stroke-miterlimit:10;}.cls-2{fill:#1f1f1f;}.cls-3{fill:#f6f2eb;}.cls-4{stroke-linecap:square;stroke-linejoin:round;}</style></defs><g id="Layer_2" data-name="Layer 2"><g id="Layer_1-2" data-name="Layer 1"><path class="cls-1" d="M86.26,207.85c0,1.75-2.07,3.38-5.69,4.78-7.32,2.86-21,4.79-36.69,4.79s-29.36-1.93-36.7-4.79c-3.61-1.4-5.68-3-5.68-4.78,0-5.28,19-9.57,42.38-9.57S86.26,202.57,86.26,207.85Z"/><path class="cls-1" d="M86.26,234c0,1.74-2.07,3.38-5.69,4.78-7.33,2.86-21,4.78-36.69,4.78s-29.36-1.92-36.7-4.78c-3.61-1.4-5.68-3-5.68-4.78,0-5.28,19-9.57,42.38-9.57S86.26,228.71,86.26,234Z"/><path class="cls-1" d="M86.26,271.36V290.5c0,1.74-2.07,3.37-5.69,4.78-7.33,2.86-21,4.79-36.69,4.79s-29.36-1.93-36.7-4.79c-3.61-1.41-5.68-3-5.68-4.78V271.36c0,1.75,2.07,3.38,5.68,4.79,7.34,2.85,21,4.78,36.7,4.78s29.36-1.93,36.69-4.78C84.19,274.74,86.26,273.11,86.26,271.36Z"/><line class="cls-1" x1="1.5" y1="233.99" x2="1.5" y2="207.86"/><path class="cls-1" d="M86.26,234v37.37c0,1.75-2.07,3.38-5.69,4.79-7.33,2.85-21,4.78-36.69,4.78S14.52,279,7.18,276.15c-3.61-1.41-5.68-3-5.68-4.79V234c0,1.74,2.07,3.38,5.68,4.78,7.34,2.86,21,4.78,36.7,4.78s29.36-1.92,36.69-4.78C84.19,237.37,86.26,235.73,86.26,234Z"/><line class="cls-1" x1="86.26" y1="233.99" x2="86.26" y2="207.86"/><path class="cls-1" d="M224.43,288.79c0,2-2.57,3.85-7.06,5.46-9.09,3.25-26.07,5.45-45.51,5.45s-36.43-2.2-45.53-5.45c-4.48-1.61-7-3.46-7-5.46,0-6,23.53-10.91,52.57-10.91S224.43,282.77,224.43,288.79Z"/><line class="cls-1" x1="119.29" y1="288.79" x2="119.29" y2="88.55"/><line class="cls-1" x1="224.43" y1="288.79" x2="224.43" y2="88.55"/><path class="cls-1" d="M183.12,3.84c0,.42-.55.82-1.52,1.16a32.73,32.73,0,0,1-9.74,1.17A32.81,32.81,0,0,1,162.11,5c-1-.34-1.51-.74-1.51-1.16,0-1.29,5-2.34,11.26-2.34S183.12,2.55,183.12,3.84Z"/><path class="cls-1" d="M183.12,18.82c0,.42-.55.82-1.52,1.17a33.14,33.14,0,0,1-9.74,1.16A33.21,33.21,0,0,1,162.11,20c-1-.35-1.51-.75-1.51-1.17"/><line class="cls-1" x1="160.6" y1="18.82" x2="160.6" y2="3.84"/><line class="cls-1" x1="183.12" y1="18.82" x2="183.12" y2="3.84"/><path class="cls-1" d="M119.29,88.55c0-22.52,35.89-30.18,41.79-53.7a56.27,56.27,0,0,0,1.07-13.7"/><path class="cls-1" d="M224.43,88.55c0-22.52-35.9-30.18-41.8-53.7a56.77,56.77,0,0,1-1.07-13.7"/><path class="cls-2" d="M224.43,114.16V244.31c0,2.7-2.57,5.23-7.06,7.42-9.09,4.42-26.07,7.41-45.51,7.41s-36.43-3-45.53-7.41c-4.48-2.19-7-4.72-7-7.42V114.16c0,2.72,2.56,5.24,7,7.42,9.1,4.44,26.08,7.41,45.53,7.41s36.42-3,45.51-7.41C221.86,119.4,224.43,116.88,224.43,114.16Z"/><path class="cls-3" d="M170.54,195.75c-.13,1.81-.24,3.35-.37,4.62h2.12v2.74h-2.5a7.4,7.4,0,0,1-1,3,3,3,0,0,1-2.4,1.3,22.23,22.23,0,0,1-3.81,0,5.76,5.76,0,0,0-.68-2.33,28.86,28.86,0,0,0,3.19.11,1.07,1.07,0,0,0,1.13-.52,4.86,4.86,0,0,0,.61-1.61H156.57l-.21,1.44-3-.2c.41-2.3.82-5.38,1.23-8.6h-2v-1l-1.5,2.06c-.45-1.1-1.44-3-2.33-4.63V207.5h-2.95V193a32.06,32.06,0,0,1-3.67,8.22,15.58,15.58,0,0,0-1.5-2.74c2-2.81,4-7.88,4.9-12.23h-4.18v-2.95h4.45v-7.23h2.95v7.23h3.59v1.85A23.56,23.56,0,0,0,157,176l3.12.72a34.08,34.08,0,0,1-1.23,3.56h13V183H157.59c-.51,1-1.06,1.85-1.61,2.68h15v1.37c-.06,2.15-.17,4-.24,5.75h1.92v2.95ZM155,192.8c.27-2.29.51-4.59.68-6.65-.38.52-.75,1-1.13,1.41a14.59,14.59,0,0,0-2.16-1.47v.17h-3.59v2.16c.85,1.13,3,4.42,3.83,5.72V192.8Zm2.53,2.95c-.2,1.61-.38,3.18-.55,4.62h3.7c.14-1.37.31-2.94.45-4.62Zm.75-7.33c-.13,1.43-.27,2.91-.44,4.38h3.56c.1-1.51.21-3,.31-4.38Zm9,12c.14-1.23.28-2.74.42-4.62h-3.84c-.14,1.68-.31,3.25-.45,4.62Zm.59-7.57c.06-1.34.13-2.77.2-4.38h-3.66c-.11,1.4-.21,2.91-.31,4.38Z"/><path class="cls-3" d="M180.68,191.4c-1.27-.86-3.84-2.37-5.69-3.36l1.78-2.36c1.78.89,4.42,2.22,5.76,3.08Zm-5.07,13.8a112.39,112.39,0,0,0,5.38-11l2.53,1.82c-1.47,3.63-3.39,7.81-5.07,11ZM178,176.67c1.72.92,4.29,2.36,5.59,3.25l-1.92,2.57c-1.2-.93-3.7-2.47-5.48-3.53Zm21.11,4.17v4h6.16v22.57h-3.05V206H187.8v1.54h-2.91V184.82h5.66v-4h-6.72v-2.91H206.3v2.91Zm0,13.54c-2.36,0-2.95-.69-2.95-3.19v-3.6h-2.6v1.07a7.66,7.66,0,0,1-4.42,7.12,13.61,13.61,0,0,0-1.27-1.3v2.71h14.39v-2.81H199Zm-11.24-6.79v6.1c2.64-1.54,3.23-3.42,3.23-5.07v-1Zm14.39,15.59v-3.29H187.8v3.29Zm-6-22.34h-2.85v4h2.85Zm6,6.75H198.6v3.57c0,.61.06.68.75.68h2.26a1.53,1.53,0,0,0,.58-.07Z"/><polygon class="cls-4" points="26.46 249.95 34.33 257.14 32.03 267.55 21.87 270.77 14 263.57 16.3 253.16 26.46 249.95"/><polygon class="cls-4" points="26.46 249.95 24.16 260.36 14 263.57 16.3 253.16 26.46 249.95"/><line class="cls-4" x1="24.17" y1="260.35" x2="31.8" y2="267.34"/><polygon class="cls-4" points="69.97 253.6 70.22 264.25 61.12 269.8 51.76 264.69 51.51 254.03 60.62 248.48 69.97 253.6"/><polygon class="cls-4" points="69.97 253.6 60.87 259.14 51.51 254.03 60.62 248.48 69.97 253.6"/><line class="cls-4" x1="60.87" y1="259.14" x2="61.11" y2="269.48"/></g></g></svg>
